actions/22/window-close.svg

<svg xmlns="http://www.w3.org/2000/svg" viewBox="0 0 22 22">
 <g transform="translate(-421.71429-525.79074)">
  <circle cx="432.71429" cy="536.79071" r="6" style="fill:#fff"/>
  <path d="m432.71429 528.79074a8 8.00001 0 0 0 -8 8 8 8.00001 0 0 0 8 8 8 8.00001 0 0 0 8 -8 8 8.00001 0 0 0 -8 -8m-3.29297 4l3.29297 3.29297 3.29297-3.29297.70703.70703-3.29297 3.29297 3.29297 3.29297-.70703.70703-3.29297-3.29297-3.29297 3.29297-.70703-.70703 3.29297-3.29297-3.29297-3.29297.70703-.70703" style="fill:#da4453"/>
 </g>
</svg>

<svg xmlns="http://www.w3.org/2000/svg" version="1.1" viewBox="0 0 22 22">
 <g transform="translate(-421.71,-525.79)">
  <circle style="fill:#ffffff" cx="432.71" cy="536.79" r="6"/>
  <path style="fill:#da4453" d="M 432.71,528.79 A 8,8 0 0 0 424.71,536.79 8,8 0 0 0 432.71,544.79 8,8 0 0 0 440.71,536.79 8,8 0 0 0 432.71,528.79 M 429.42,532.79 432.71,536.08 436.01,532.79 436.71,533.5 433.42,536.79 436.71,540.08 436.01,540.79 432.71,537.5 429.42,540.79 428.71,540.08 432.01,536.79 428.71,533.5 429.42,532.79"/>
 </g>
</svg>
